rospo-icon-theme-classic-common/64x64/apps/microscope.svg

<svg height="64" viewBox="0 0 64 64" width="64" xmlns="http://www.w3.org/2000/svg"><path d="m25.005859 13.044922c-.912649-.020214-1.833041.309268-2.544921.990234l-6.09961 5.833985c-8.2222303 7.865755-8.512357 20.953553-.646484 29.175781l2.826172 2.955078h8.673828l-7.544922-7.886719c-2.332179-2.437877-3.568527-5.528887-3.722656-8.660156-.185988-3.77853.966525-7.887543 4.146484-10.429687l7.298828-5.833985c1.53875-1.230118 1.473258-3.619328.111328-5.042969-.680964-.711761-1.585397-1.081348-2.498047-1.101562zm28.759766 44.318359c-.514485 1.534511-1.855808 2.636719-3.445313 2.636719h-13.611328-8.597656-1.892578c.66162.558176 1.539492.300781 2.457031.300781h21.529297c1.970006 0 3.56836-.897181 3.56836-2.867187 0-.024115-.007337-.046312-.007813-.070313z" opacity=".2"/><path d="m30.060287 36.006748c.12514-.473608.436006-.878942.864398-1.126817l6.267729-3.625612c.891874-.515924 2.040158-.222042 2.564218.656654l3.985149 6.683391c.523808.878816.225434 2.009444-.66669 2.525614l-6.267729 3.625611c-.386302.223396-.820436.29499-1.231216.233114-.537922-.0812-1.035878-.391434-1.333002-.889766l-3.985149-6.683389c-.251664-.42194-.32273-.925194-.1977-1.3988z" opacity=".2"/><path d="m15.679572 52.999994h15.210617 5.818017 13.612212c2.032106 0 3.679573 1.790936 3.679573 4.000001 0 2.209066-1.647467 3.999998-3.679573 3.999998h-13.612212-8.597077-12.431557c-2.032106 0-3.679574-1.790932-3.679574-3.999998 0-2.209199 1.647345-4.000001 3.679574-4.000001z" opacity=".2"/><path d="m-48 49h13v5h-13z" fill="#e4e4e4" transform="scale(-1 1)"/><path d="m28.675409 59.299997h21.530587c1.970006 0 3.567128-.897122 3.567128-2.867128 0-1.970003-1.597122-3.567127-3.567128-3.567127h-21.206007l-9.329347-9.752171c-2.332179-2.437877-3.568511-5.529611-3.72264-8.66088-.185988-3.77853.965744-7.886813 4.145703-10.428957l7.29837-5.834514c1.53875-1.230118 1.47358-3.619801.11165-5.043441-1.361929-1.423523-3.619683-1.473582-5.043443-.11165l-6.098954 5.834511c-8.2222294 7.865754-8.5122368 20.954498-.646365 29.176725l10.382837 10.853344c.673.703434 1.604139.401288 2.577609.401288z" fill="#3f3f3f"/><path d="m30.060287 35.006753c.12514-.473608.436006-.878942.864398-1.126818l6.267729-3.625612c.891874-.515924 2.040158-.222042 2.564218.656654l3.985149 6.683391c.523808.878816.225434 2.009444-.66669 2.525614l-6.267729 3.625611c-.386302.223396-.820436.29499-1.231216.233114-.537922-.0812-1.035878-.391434-1.333002-.889766l-3.985149-6.683389c-.251664-.421939-.32273-.925193-.1977-1.398799z" fill="#4f4f4f"/><path d="m14.193985 12.438531c.400011-1.586236 1.375128-2.9169793 2.745844-3.747032l4.700725-2.8466998c1.176342-.7122437 2.565636-.9873717 3.912084-.7747401 1.779201.2809944 3.322111 1.3592374 4.233019 2.9584032l11.974398 21.0233387c.234084.410776.300154.900452.1838 1.361394-.11622.460938-.405234.855434-.803618 1.09668l-11.959886 7.242521c-.359138.21742-.762746.287098-1.144642.226878-.5001-.07902-.963041-.380964-1.239275-.86597l-11.974392-21.02322c-.805012-1.413473-1.028066-3.065318-.628057-4.651553z" opacity=".2"/><path d="m14.193985 11.438535c.400011-1.5862362 1.375128-2.916979 2.745844-3.747032l4.700725-2.8466998c1.176342-.7122437 2.565636-.9873717 3.912084-.7747401 1.779201.2809944 3.322111 1.3592374 4.233019 2.9584032l11.974398 21.0233397c.234084.410776.300154.900452.1838 1.361393-.11622.460938-.405234.855434-.803618 1.09668l-11.959886 7.242521c-.359138.21742-.762746.287098-1.144642.226878-.5001-.07902-.963041-.380964-1.239275-.86597l-11.974392-21.023221c-.805012-1.413472-1.028066-3.065317-.628057-4.651552z" fill="#ff9b32"/><path d="m15.679572 51.999998h15.210617 5.818017 13.612212c2.032106 0 3.679573 1.790936 3.679573 4.000002 0 2.209065-1.647467 3.999997-3.679573 3.999997h-13.612212-8.597077-12.431557c-2.032106 0-3.679574-1.790932-3.679574-3.999997 0-2.2092 1.647345-4.000002 3.679574-4.000002z" fill="#ff9b32"/><path d="m19.999996 28.999997c4.411214 0 7.999997-3.588783 7.999997-7.999996s-3.588783-7.999998-7.999997-7.999998c-4.411213 0-7.999998 3.588785-7.999998 7.999998s3.588785 7.999996 7.999998 7.999996z" opacity=".2"/><path d="m19.999996 28.000002c4.411214 0 7.999997-3.588784 7.999997-7.999998 0-4.411213-3.588783-7.999997-7.999997-7.999997-4.411213 0-7.999998 3.588784-7.999998 7.999997 0 4.411214 3.588785 7.999998 7.999998 7.999998z" fill="#4f4f4f"/><path d="m19.999996 17.000001c2.205614 0 4 1.794385 4 3.999999 0 2.205613-1.794386 3.999997-4 3.999997s-3.999999-1.794384-3.999999-3.999997c0-2.205614 1.794385-3.999999 3.999999-3.999999z" opacity=".2"/><path d="m19.999996 16.000006c2.205614 0 4 1.794385 4 3.999998 0 2.205615-1.794386 3.999998-4 3.999998s-3.999999-1.794383-3.999999-3.999998c0-2.205613 1.794385-3.999998 3.999999-3.999998z" fill="#e4e4e4"/><path d="m15.679688 52c-2.03223 0-3.679688 1.7908-3.679688 4 0 .186194.015307.367177.041016.544922.210104-1.99225 1.749732-3.544922 3.638672-3.544922h15.210937 5.816406 13.613281c1.888826 0 3.428554 1.552763 3.638672 3.544922.025709-.177745.041016-.358728.041016-.544922 0-2.209066-1.647581-4-3.679688-4h-13.613281-5.816406z" fill="#fff" opacity=".2"/><path d="m24.539062 4.0019531c-1.013912.0210622-2.01618.3095672-2.898437.84375l-4.701172 2.8457031c-1.370716.8300531-2.346083 2.1618105-2.746094 3.7480468-.170888.677656-.221304 1.365066-.167968 2.042969.028414-.348801.080788-.697254.167968-1.042969.400011-1.586236 1.375378-2.9179937 2.746094-3.7480468l4.701172-2.8457031c1.176342-.7122438 2.565661-.9880222 3.912109-.7753906 1.779202.2809944 3.321514 1.3598184 4.232422 2.9589844l11.97461 21.0234371c.074342.130459.126027.269183.166015.41211.004963-.017479.013121-.033103.017578-.050782.116354-.460941.050491-.950552-.183593-1.361328l-11.97461-21.0234371c-.910908-1.599166-2.45322-2.67799-4.232422-2.9589844-.336612-.0531579-.675701-.0753801-1.013672-.0683594z" fill="#fff" opacity=".2"/></svg>

<svg xmlns="http://www.w3.org/2000/svg" width="64" height="64" x="0" y="0" version="1.1" viewBox="0 0 64 64" xml:space="preserve">
 <path style="opacity:0.2" d="M 25.005859 13.044922 C 24.09321 13.024708 23.172818 13.35419 22.460938 14.035156 L 16.361328 19.869141 C 8.1390977 27.734896 7.848971 40.822694 15.714844 49.044922 L 18.541016 52 L 27.214844 52 L 19.669922 44.113281 C 17.337743 41.675404 16.101395 38.584394 15.947266 35.453125 C 15.761278 31.674595 16.913791 27.565582 20.09375 25.023438 L 27.392578 19.189453 C 28.931328 17.959335 28.865836 15.570125 27.503906 14.146484 C 26.822942 13.434723 25.918509 13.065136 25.005859 13.044922 z M 53.765625 57.363281 C 53.25114 58.897792 51.909817 60 50.320312 60 L 36.708984 60 L 28.111328 60 L 26.21875 60 C 26.88037 60.558176 27.758242 60.300781 28.675781 60.300781 L 50.205078 60.300781 C 52.175084 60.300781 53.773438 59.4036 53.773438 57.433594 C 53.773438 57.409479 53.766101 57.387282 53.765625 57.363281 z"/>
 <path d="m 30.060287,36.006748 c 0.12514,-0.473608 0.436006,-0.878942 0.864398,-1.126817 l 6.267729,-3.625612 c 0.891874,-0.515924 2.040158,-0.222042 2.564218,0.656654 l 3.985149,6.683391 c 0.523808,0.878816 0.225434,2.009444 -0.66669,2.525614 l -6.267729,3.625611 c -0.386302,0.223396 -0.820436,0.29499 -1.231216,0.233114 -0.537922,-0.0812 -1.035878,-0.391434 -1.333002,-0.889766 l -3.985149,-6.683389 c -0.251664,-0.42194 -0.32273,-0.925194 -0.1977,-1.3988 z" style="opacity:0.2"/>
 <path style="opacity:0.2" d="m 15.679572,52.999994 15.210617,0 5.818017,0 13.612212,0 c 2.032106,0 3.679573,1.790936 3.679573,4.000001 0,2.209066 -1.647467,3.999998 -3.679573,3.999998 l -13.612212,0 -8.597077,0 -12.431557,0 c -2.032106,0 -3.679574,-1.790932 -3.679574,-3.999998 0,-2.209199 1.647345,-4.000001 3.679574,-4.000001 z"/>
 <rect width="13" height="5" x="-48" y="49" transform="scale(-1,1)" style="fill:#cccccc"/>
 <path style="fill:#3f3f3f" d="m 28.675409,59.299997 21.530587,0 c 1.970006,0 3.567128,-0.897122 3.567128,-2.867128 0,-1.970003 -1.597122,-3.567127 -3.567128,-3.567127 l -21.206007,0 -9.329347,-9.752171 c -2.332179,-2.437877 -3.568511,-5.529611 -3.72264,-8.66088 -0.185988,-3.77853 0.965744,-7.886813 4.145703,-10.428957 l 7.29837,-5.834514 c 1.53875,-1.230118 1.47358,-3.619801 0.11165,-5.043441 -1.361929,-1.423523 -3.619683,-1.473582 -5.043443,-0.11165 L 16.361328,18.86864 C 8.1390986,26.734394 7.8490912,39.823138 15.714963,48.045365 L 26.0978,58.898709 c 0.673,0.703434 1.604139,0.401288 2.577609,0.401288 z"/>
 <path style="fill:#4f4f4f" d="m 30.060287,35.006753 c 0.12514,-0.473608 0.436006,-0.878942 0.864398,-1.126818 l 6.267729,-3.625612 c 0.891874,-0.515924 2.040158,-0.222042 2.564218,0.656654 l 3.985149,6.683391 c 0.523808,0.878816 0.225434,2.009444 -0.66669,2.525614 l -6.267729,3.625611 c -0.386302,0.223396 -0.820436,0.29499 -1.231216,0.233114 -0.537922,-0.0812 -1.035878,-0.391434 -1.333002,-0.889766 l -3.985149,-6.683389 c -0.251664,-0.421939 -0.32273,-0.925193 -0.1977,-1.398799 z"/>
 <path d="m 14.193985,12.438531 c 0.400011,-1.586236 1.375128,-2.9169793 2.745844,-3.747032 l 4.700725,-2.8466998 c 1.176342,-0.7122437 2.565636,-0.9873717 3.912084,-0.7747401 1.779201,0.2809944 3.322111,1.3592374 4.233019,2.9584032 L 41.760055,29.051801 c 0.234084,0.410776 0.300154,0.900452 0.1838,1.361394 -0.11622,0.460938 -0.405234,0.855434 -0.803618,1.09668 l -11.959886,7.242521 c -0.359138,0.21742 -0.762746,0.287098 -1.144642,0.226878 -0.5001,-0.07902 -0.963041,-0.380964 -1.239275,-0.86597 L 14.822042,17.090084 C 14.01703,15.676611 13.793976,14.024766 14.193985,12.438531 Z" style="opacity:0.2"/>
 <path style="fill:#ff9b32" d="m 14.193985,11.438535 c 0.400011,-1.5862362 1.375128,-2.916979 2.745844,-3.747032 l 4.700725,-2.8466998 c 1.176342,-0.7122437 2.565636,-0.9873717 3.912084,-0.7747401 1.779201,0.2809944 3.322111,1.3592374 4.233019,2.9584032 L 41.760055,28.051806 c 0.234084,0.410776 0.300154,0.900452 0.1838,1.361393 -0.11622,0.460938 -0.405234,0.855434 -0.803618,1.09668 L 29.180351,37.7524 c -0.359138,0.21742 -0.762746,0.287098 -1.144642,0.226878 -0.5001,-0.07902 -0.963041,-0.380964 -1.239275,-0.86597 L 14.822042,16.090087 C 14.01703,14.676615 13.793976,13.02477 14.193985,11.438535 Z"/>
 <path d="m 15.679572,51.999998 15.210617,0 5.818017,0 13.612212,0 c 2.032106,0 3.679573,1.790936 3.679573,4.000002 0,2.209065 -1.647467,3.999997 -3.679573,3.999997 l -13.612212,0 -8.597077,0 -12.431557,0 c -2.032106,0 -3.679574,-1.790932 -3.679574,-3.999997 0,-2.2092 1.647345,-4.000002 3.679574,-4.000002 z" style="fill:#ff9b32"/>
 <path d="m 19.999996,28.999997 c 4.411214,0 7.999997,-3.588783 7.999997,-7.999996 0,-4.411213 -3.588783,-7.999998 -7.999997,-7.999998 -4.411213,0 -7.999998,3.588785 -7.999998,7.999998 0,4.411213 3.588785,7.999996 7.999998,7.999996 z" style="opacity:0.2"/>
 <path style="fill:#4f4f4f" d="m 19.999996,28.000002 c 4.411214,0 7.999997,-3.588784 7.999997,-7.999998 0,-4.411213 -3.588783,-7.999997 -7.999997,-7.999997 -4.411213,0 -7.999998,3.588784 -7.999998,7.999997 0,4.411214 3.588785,7.999998 7.999998,7.999998 z"/>
 <path d="m 19.999996,17.000001 c 2.205614,0 4,1.794385 4,3.999999 0,2.205613 -1.794386,3.999997 -4,3.999997 -2.205614,0 -3.999999,-1.794384 -3.999999,-3.999997 0,-2.205614 1.794385,-3.999999 3.999999,-3.999999 z" style="opacity:0.2"/>
 <path style="fill:#cccccc" d="m 19.999996,16.000006 c 2.205614,0 4,1.794385 4,3.999998 0,2.205615 -1.794386,3.999998 -4,3.999998 -2.205614,0 -3.999999,-1.794383 -3.999999,-3.999998 0,-2.205613 1.794385,-3.999998 3.999999,-3.999998 z"/>
 <path style="opacity:0.2;fill:#ffffff" d="M 15.679688 52 C 13.647458 52 12 53.7908 12 56 C 12 56.186194 12.015307 56.367177 12.041016 56.544922 C 12.25112 54.552672 13.790748 53 15.679688 53 L 30.890625 53 L 36.707031 53 L 50.320312 53 C 52.209138 53 53.748866 54.552763 53.958984 56.544922 C 53.984693 56.367177 54 56.186194 54 56 C 54 53.790934 52.352419 52 50.320312 52 L 36.707031 52 L 30.890625 52 L 15.679688 52 z"/>
 <path style="fill:#ffffff;opacity:0.2" d="M 24.539062 4.0019531 C 23.52515 4.0230153 22.522882 4.3115203 21.640625 4.8457031 L 16.939453 7.6914062 C 15.568737 8.5214593 14.59337 9.8532167 14.193359 11.439453 C 14.022471 12.117109 13.972055 12.804519 14.025391 13.482422 C 14.053805 13.133621 14.106179 12.785168 14.193359 12.439453 C 14.59337 10.853217 15.568737 9.5214593 16.939453 8.6914062 L 21.640625 5.8457031 C 22.816967 5.1334593 24.206286 4.8576809 25.552734 5.0703125 C 27.331936 5.3513069 28.874248 6.4301309 29.785156 8.0292969 L 41.759766 29.052734 C 41.834108 29.183193 41.885793 29.321917 41.925781 29.464844 C 41.930744 29.447365 41.938902 29.431741 41.943359 29.414062 C 42.059713 28.953121 41.99385 28.46351 41.759766 28.052734 L 29.785156 7.0292969 C 28.874248 5.4301309 27.331936 4.3513069 25.552734 4.0703125 C 25.216122 4.0171546 24.877033 3.9949324 24.539062 4.0019531 z"/>
</svg>
